X:220
T:Aggie White's
R:reel
Z:Transcribed by Dave Marshall
M:C|
K:G
|: BGAF D~G3 | ABcA defg | afge ~f3e | dfed cAdc |
BGAF D~G3 | ABcA defg | afge ~f3e |1 dcAF G2 dc :|2 dcAF G4 |
|: defg a2 fa | gfde dcAc | defg a~d3 | adfa g2fe |
defg a2 fa | gfde dcAG | FDFG Adfe | dcAF G4 :|
